!!!COM: Palestrina, Giovanni Perluigi da
!!!OPR: Missa Petra sancta
!!!OTL: Sanctus
**kern	**kern	**kern	**kern	**kern
*Ibass	*Itenor	*Itenor	*Icalto	*Icant
!Bassus	!Tenor 2	!Tenor 1	!Altus	!Cantus
*clefF4	*clefGv2	*clefGv2	*clefG2	*clefG2
*k[]	*k[]	*k[]	*k[]	*k[]
*A:aeo	*A:aeo	*A:aeo	*A:aeo	*A:aeo
*M4/2	*M4/2	*M4/2	*M4/2	*M4/2
=1	=1	=1	=1	=1
1.A	1.c	1r	0r	0r
.	.	1e	.	.
4G#	4B	.	.	.
4F#	4A	.	.	.
=2	=2	=2	=2	=2
2G#	2B	1e	0r	0r
2A	2c	.	.	.
2F	2A	2d	.	.
2E	2G	2c	.	.
=3	=3	=3	=3	=3
4D	1d	1f	1a	0r
4E	.	.	.	.
4F	.	.	.	.
4G	.	.	.	.
4A	2.c	1e	1a	.
4G	.	.	.	.
4A	.	.	.	.
4B	4d	.	.	.
=4	=4	=4	=4	=4
2c	2e	2r	2g	0r
2d	2f	2a	2f	.
1G	4e	2.g	1b-	.
.	4d	.	.	.
.	[2d	.	.	.
.	.	4f	.	.
=5	=5	=5	=5	=5
0A	2d]	1e	1.a	1r
.	4c	.	.	.
.	4B	.	.	.
.	2c	2r	.	[1ee
.	2A	[2a	[2cc	.
=6	=6	=6	=6	=6
0r	1e	2a]	2cc]	1ee]
.	.	4g#	4b	.
.	.	4f#	4a	.
.	1r	2g#	2b	1ee
.	.	2a	2cc	.
=7	=7	=7	=7	=7
0r	1r	2f	2a	2dd
.	.	2e	2g	2cc
.	2r	1d	[1a	1ff
.	[2d	.	.	.
=8	=8	=8	=8	=8
1A	2d]	1e	0a]	0ee
.	4c	.	.	.
.	4B	.	.	.
1A	4c	4A	.	.
.	4d	4B	.	.
.	4e	4c	.	.
.	4f	4d	.	.
=9	=9	=9	=9	=9
2G	2g	2e	0r	1r
2F	1a	2f	.	.
1B-	.	1d	.	[1dd
.	2g	.	.	.
=10	=10	=10	=10	=10
1.A	2f	0r	1a	2dd]
.	4e	.	.	4cc#
.	4d	.	.	4b
.	2e	.	1a	2cc#
2D	2f	.	.	2dd
=11	=11	=11	=11	=11
2G	1d	1r	2g	2b-
2D	.	.	2f	2a
1G	1r	[1d	1b-	2.g
.	.	.	.	4f
=12	=12	=12	=12	=12
0A	1e	2d]	[0a	2e
.	.	4c	.	1ee
.	.	4B	.	.
.	1e	4c	.	.
.	.	4d	.	.
.	.	4e	.	2cc
.	.	8d	.	.
.	.	8e	.	.
=13	=13	=13	=13	=13
2r	2d	2f	0a]	2dd
2A	2c	2e	.	2.ee
2F	1f	1A	.	.
.	.	.	.	4dd
2D	.	.	.	[2dd
=14	=14	=14	=14	=14
0A	0e	2r	[0a	2dd]
.	.	2.a	.	4cc#
.	.	.	.	4b
.	.	.	.	1cc#
.	.	4g	.	.
.	.	2e	.	.
=15	=15	=15	=15	=15
4D	2r	1f	0a]	1dd
4E	.	.	.	.
4F	2.d	.	.	.
4G	.	.	.	.
1A	.	1e	.	2r
.	4d	.	.	.
.	2c#	.	.	[2a
=16	=16	=16	=16	=16
1D	2d	1d	2r	4a]
.	.	.	.	4a
.	2f	.	2.a	2a
1r	2e	2r	.	2b
.	.	.	4a	.
.	2e	[2e	2g#	2b
=17	=17	=17	=17	=17
0r	1A	4e]	2a	2.cc
.	.	4e	.	.
.	.	2c	2e	.
.	.	.	.	4b
.	1r	2d	2f	2a
.	.	2e	2c	2g
=18	=18	=18	=18	=18
2r	1r	2a	1d	1f
2.d	.	2a	.	.
.	2r	1A	2r	1e
4d	.	.	.	.
2c#	2e	.	[2a	.
=19	=19	=19	=19	=19
2d	2f	1r	4a]	0r
.	.	.	4a	.
2f	1a	.	2a	.
2.e	.	2r	2b	.
.	2g#	[2e	2b	.
4d	.	.	.	.
=20	=20	=20	=20	=20
4c	1a	4e]	2.cc	0r
4B	.	4e	.	.
4A	.	2e	.	.
4G	.	.	4b	.
2F	1r	2f	2a	.
2G	.	[2e	2g	.
=21	=21	=21	=21	=21
0A	2.a	2e]	2.f	1r
.	.	1d	.	.
.	4a	.	8e	.
.	.	.	8d	.
.	1a	.	1e	2r
.	.	2c#	.	[2a
=22	=22	=22	=22	=22
1d	2r	2d	1f#	4a]
.	.	.	.	4a
.	2.d	2a	.	2a
2G	.	2.g	2r	2b
.	4d	.	.	.
2G	2d	.	[2g	2b
.	.	4f	.	.
=23	=23	=23	=23	=23
1c	2e	4e	4g]	2.cc
.	.	4d	4g	.
.	2e	2.c	2g	.
.	.	.	.	4b
1F	2.f	.	2a	2a
.	.	4B	.	.
.	.	2A	2a	2cc
.	4e	.	.	.
=24	=24	=24	=24	=24
2G	2d	2B	4g	2b
.	.	.	4f	.
2A	2c	1e	4e	1a
.	.	.	4d	.
1E	1B	.	2e	.
.	.	2B	2e	2g#
=25	=25	=25	=25	=25
1A	1A	1c#	1e	0a
2r	2r	2r	1r	.
2D	2f	2d	.	.
=26	=26	=26	=26	=26
2D	2f	2d	1a	0r
2D	2f	2d	.	.
2.A	[1e	[1c	2a	.
.	.	.	2a	.
4B	.	.	.	.
=27	=27	=27	=27	=27
2c	2e]	2c]	2.g	0r
2B	2d	2G	.	.
.	.	.	4f	.
2c	2c	1g	2e	.
[2d	2B	.	2d	.
=28	=28	=28	=28	=28
4d]	2A	1a	2e	0r
4c	.	.	.	.
1c	2F	.	2f	.
.	1G	[1g	1d	.
2B	.	.	.	.
=29	=29	=29	=29	=29
1c	2r	0g]	2c	1ee
.	2c	.	2cc	.
1r	4c	.	2cc	2ee
.	4d	.	.	.
.	4e	.	2cc	2ee
.	4f	.	.	.
=30	=30	=30	=30	=30
0r	1.g	0r	2.b	2.dd
.	.	.	4a	4cc
.	.	.	2g	2b
.	2f	.	[2a	2a
=31	=31	=31	=31	=31
0r	2e	0r	4a]	2b
.	.	.	4g	.
.	2c	.	1g	2cc
.	1d	.	.	2a
.	.	.	2f#	[2dd
=32	=32	=32	=32	=32
1r	1e	2r	1g	2dd]
.	.	2g	.	2cc#
2r	1d	2f	4a	2dd
.	.	.	4g	.
[2B-	.	2d	4f	[2dd
.	.	.	4e	.
=33	=33	=33	=33	=33
4B-]	0r	2f	1d	4dd]
4B-	.	.	.	4dd
2B-	.	2g	.	2dd
2.A	.	2a	1e	2.cc
.	.	4A	.	.
4G	.	4B	.	4b
=34	=34	=34	=34	=34
2F	0r	4c	1r	2a
.	.	4d	.	.
2E	.	2.e	.	2g
2F	.	.	2r	2a
.	.	4d	.	.
2G	.	[2d	[2g	2b-
=35	=35	=35	=35	=35
1E	1r	2d]	4g]	1g
.	.	.	4g	.
.	.	2c#	2g	.
[1D	2r	2d	1f	2r
.	[2f	[2a	.	[2dd
=36	=36	=36	=36	=36
1D]	4f]	4a]	1d	4dd]
.	4f	4a	.	4dd
.	2f	2a	.	2dd
1r	2.e	2.g	1r	2cc
.	.	.	.	2b-
.	4d	4f	.	.
=37	=37	=37	=37	=37
1r	2c	2e	0r	4a
.	.	.	.	4g
.	2B-	2d	.	2.b-
2r	2c	2e	.	.
.	.	.	.	4a
2d	2d	2f	.	[2a
=38	=38	=38	=38	=38
2d	1B-	2d	0r	2a]
2d	.	4r	.	2g
.	.	4d	.	.
2.c	2.A	2e	.	1a
.	.	2e	.	.
4B	4B	.	.	.
=39	=39	=39	=39	=39
2A	4c	2f	1r	0r
.	4d	.	.	.
2G	2e	2.g	.	.
2A	1f	.	2r	.
.	.	4f	.	.
2B-	.	[2f	2b-	.
=40	=40	=40	=40	=40
1G	1g	2f]	2b-	1r
.	.	2e	2b-	.
2.F	2c	1f	2.a	2r
.	4A	.	.	2cc
4G	4B	.	4g	.
=41	=41	=41	=41	=41
4A	4c	0r	2f	2cc
4B	4d	.	.	.
2c	2.e	.	2e	2cc
2d	.	.	2f	2a
.	4d	.	.	.
2G	[2d	.	2g	2b-
=42	=42	=42	=42	=42
1A	2d]	1r	1e	1a
.	2c#	.	.	.
2r	1d	1f	4d	2a
.	.	.	4e	.
2D	.	.	4f	2a
.	.	.	4g	.
=43	=43	=43	=43	=43
2.F	2r	2f	2a	4f
.	.	.	.	4g
.	2A	2f	2cc	4a
4G	.	.	.	4b
[1A	4A	2.e	2cc	4cc
.	4B	.	.	4dd
.	4c	.	2cc	[2ee
.	4d	4d	.	.
=44	=44	=44	=44	=44
2A]	2e	2c	2a	2ee]
2G	2e	2B	2.b	2ee
2F	2A	2c	.	2ff
.	.	.	4a	.
2D	2A	2d	[2a	2ff
=45	=45	=45	=45	=45
0E	0e	0B	2a]	0ee
.	.	.	4g#	.
.	.	.	4f#	.
.	.	.	1g#	.
=46	=46	=46	=46	=46
0A	0e	0A	0a	0cc#
==	==	==	==	==
*-	*-	*-	*-	*-
!!!CDT: 1525/^1526/-1594/2/2
!!!OCY: Italia
!!!AGN: Mass (Parody)
!!!AST: renaissance, vocal
!!!ASW: Madrigal 1561 (Palestrina)
!!!PWK: Masses, Book 10
!!!RNB: Cadence finals: D
!!!YOR: Le Opere Complete, v. 27, p. 52
!!!YOO: Rome, Italy: Fratelli Scalera
!!!END: 1992//
!!!EED: John Miller
!!!YEC: Copyright 2000, John Miller
!!!YEN: United States of America
!!!YEM: Rights to all derivative electronic formats reserved.
!!!YEM: Refer to licensing agreement for further details.
!!!YEM: This file must be accompanied by the licensing agreement.
!!!YEM: A copy of the licensing agreement may be found at http://www.music-cog.ohio-state.edu/HumdrumDatabases/Palestrina/license.txt
!!!EMD: converted to Humdrum by Bret Aarden
